frontend/public/svg/interface/pen.svg

<svg width="151" height="142" viewBox="0 0 151 142" fill="none" xmlns="http://www.w3.org/2000/svg">
<g clip-path="url(#clip0)">
<path d="M117.311 13.5735L121.577 9.53334C119.566 7.46382 117.073 7.35342 114.623 7.38215C111.424 7.46318 108.328 8.53109 105.76 10.4396C100.975 13.866 96.3053 17.4493 91.7491 21.1895C85.8416 26.0373 80.2482 31.2784 74.2246 35.9704C71.5297 38.0693 68.1289 39.2692 65.0159 40.8107C64.5937 41.0195 63.9797 40.8394 62.8671 40.8394C63.1863 39.4595 63.1563 38.0834 63.7856 37.1543C65.3031 34.913 66.8497 32.551 68.8776 30.8225C77.3587 23.5993 85.8965 16.4291 94.6802 9.58264C98.4531 6.6136 102.59 4.13862 106.99 2.2177C114.117 -0.833911 121.077 -0.164135 127.124 5.25328C129.88 4.31207 132.583 3.15627 135.401 2.4743C137.746 1.88374 140.216 2.02811 142.476 2.88773C144.737 3.74736 146.678 5.28083 148.039 7.28069C151.071 11.7843 151.402 17.6851 148.127 21.708C144.704 25.9128 140.693 29.6386 136.555 33.9763C137.666 37.0815 136.132 39.987 133.403 42.575C123.337 52.1238 113.564 61.9995 103.212 71.2255C88.8614 84.0162 74.0689 96.3095 59.5071 108.864C54.2093 113.428 48.8763 117.964 43.8522 122.817C38.7691 127.766 32.7171 131.61 26.0769 134.105C20.6718 136.148 15.2725 138.202 9.84181 140.171C8.52705 140.702 7.13225 141.009 5.71586 141.077C2.47649 141.094 0.578865 138.413 1.3844 135.233C1.49197 134.81 1.64319 134.399 1.83566 134.007C6.5165 124.511 11.2099 115.021 15.9159 105.537C16.4166 104.572 17.0726 103.696 17.8576 102.943C31.1546 89.9732 44.4267 76.9763 57.8099 64.0955C72.0595 50.3811 86.3714 36.732 100.747 23.1485C103.439 20.5943 106.428 18.3517 109.101 15.7796C111.527 13.4521 114.135 12.3916 117.311 13.5735ZM64.5995 94.8147C86.2419 76.4431 107.25 57.9243 126.736 37.6153L114.104 20.6881L50.9954 80.3599L64.5995 94.8147ZM45.979 85.3291L23.7797 106.056C27.6733 111.067 31.1725 116.254 35.1905 120.941L57.5801 100.515C53.7337 95.4807 49.9652 90.5453 45.979 85.3291ZM130.166 27.914C132.434 26.1995 134.634 24.7487 136.574 23.0125C138.509 21.2662 140.306 19.3718 141.947 17.3466C143.486 15.4629 143.356 13.2115 142.182 11.2128C140.999 9.20143 138.981 8.76837 136.77 9.16107C136.123 9.24453 135.484 9.38092 134.86 9.56859C129.836 11.3682 125.287 14.2839 121.552 18.0964C124.734 21.7195 127.807 25.2257 130.166 27.914ZM18.0932 112.29C15.7353 118.653 13.5471 124.56 11.3584 130.466L11.9597 130.883L26.7242 125.279L18.0932 112.29Z" fill="black"/>
</g>
<defs>
<clipPath id="clip0">
<rect width="150" height="141.118" fill="white" transform="translate(0.777344)"/>
</clipPath>
</defs>
</svg>

<svg xmlns="http://www.w3.org/2000/svg" width="151" height="142" fill="none" viewBox="0 0 151 142"><g clip-path="url(#a)"><path fill="#000" d="m117.311 13.574 4.266-4.04c-2.011-2.07-4.504-2.18-6.954-2.152a15.5 15.5 0 0 0-8.863 3.058 268 268 0 0 0-14.01 10.75c-5.908 4.847-11.502 10.088-17.525 14.78-2.695 2.1-6.096 3.3-9.21 4.84-.421.21-1.035.03-2.148.03.32-1.38.29-2.757.919-3.686 1.517-2.241 3.064-4.603 5.092-6.332C77.358 23.6 85.897 16.43 94.68 9.583a56.4 56.4 0 0 1 12.31-7.364c7.127-3.052 14.087-2.382 20.134 3.035 2.756-.94 5.459-2.097 8.277-2.779a11.8 11.8 0 0 1 12.638 4.807c3.032 4.503 3.363 10.404.088 14.427-3.423 4.205-7.434 7.93-11.572 12.268 1.111 3.105-.423 6.011-3.152 8.599-10.066 9.549-19.839 19.424-30.191 28.65-14.35 12.791-29.143 25.085-43.705 37.639-5.298 4.564-10.63 9.1-15.655 13.953a51.4 51.4 0 0 1-17.775 11.288c-5.405 2.043-10.804 4.097-16.235 6.066a12.6 12.6 0 0 1-4.126.906c-3.24.017-5.137-2.664-4.332-5.844q.163-.636.452-1.226 7.02-14.244 14.08-28.47a10 10 0 0 1 1.942-2.594c13.297-12.97 26.569-25.967 39.952-38.847a6459 6459 0 0 1 42.937-40.948c2.692-2.554 5.681-4.796 8.354-7.368 2.426-2.328 5.034-3.388 8.21-2.206M64.6 94.813c21.642-18.37 42.65-36.89 62.136-57.199l-12.632-16.927L50.995 80.36zM45.979 85.33l-22.2 20.727c3.894 5.011 7.393 10.198 11.412 14.885l22.39-20.426zm84.187-57.415c2.268-1.715 4.468-3.165 6.408-4.902a50 50 0 0 0 5.373-5.665c1.539-1.884 1.409-4.136.235-6.134-1.183-2.012-3.201-2.445-5.412-2.052q-.972.126-1.91.408a35.3 35.3 0 0 0-13.308 8.527c3.182 3.624 6.255 7.13 8.614 9.818M18.093 112.29l-6.735 18.176.602.417 14.764-5.604z"/></g><defs><clipPath id="a"><path fill="#fff" d="M.777 0h150v141.118h-150z"/></clipPath></defs></svg>
